svg/24/ar-check--filled.svg

<svg width="24" height="24" viewBox="0 0 24 24" fill="currentColor" xmlns="http://www.w3.org/2000/svg"><path d="M2.75 2C2.33579 2 2 2.33579 2 2.75V5.25C2 5.66421 2.33579 6 2.75 6C3.16421 6 3.5 5.66421 3.5 5.25V3.5H5.25C5.66421 3.5 6 3.16421 6 2.75C6 2.33579 5.66421 2 5.25 2H2.75Z"/><path d="M2 18.75V21.25C2 21.4489 2.07902 21.6397 2.21967 21.7803C2.36032 21.921 2.55109 22 2.75 22H5.25C5.66421 22 6 21.6642 6 21.25C6 20.8358 5.66421 20.5 5.25 20.5H3.5L3.5 18.75C3.5 18.3358 3.16421 18 2.75 18C2.33579 18 2 18.3358 2 18.75Z"/><path d="M22 5.25V2.75C22 2.33579 21.6642 2 21.25 2H18.75C18.3358 2 18 2.33579 18 2.75C18 3.16421 18.3358 3.5 18.75 3.5L20.5 3.5V5.25C20.5 5.66421 20.8358 6 21.25 6C21.6642 6 22 5.66421 22 5.25Z"/><path d="M11 4.49451C11.6188 4.13725 12.3812 4.13725 13 4.49451L18 7.38126C18.0811 7.42807 18.1581 7.48008 18.2307 7.53673L12 11.134L5.76932 7.53675C5.84192 7.48009 5.91892 7.42808 6 7.38126L11 4.49451Z"/><path d="M18.9807 8.83576L12.75 12.4331L12.75 13.0629C13.9363 11.7935 15.6255 11 17.5 11C18.0163 11 18.5185 11.0602 19 11.1739V9.11331C19 9.01968 18.9935 8.92697 18.9807 8.83576Z"/><path d="M11.25 12.4331L11.25 15.7086C11.0872 16.2777 11 16.8786 11 17.5C11 18.1214 11.0872 18.7224 11.25 19.2914L11.25 19.6277C11.1646 19.5931 11.0811 19.5524 11 19.5056L6 16.6189C5.3812 16.2616 5 15.6013 5 14.8868V9.11331C5 9.01968 5.00655 8.92699 5.01931 8.83578L11.25 12.4331Z"/><path fill-rule="evenodd" clip-rule="evenodd" d="M17.5 23C20.5376 23 23 20.5376 23 17.5C23 14.4624 20.5376 12 17.5 12C14.4624 12 12 14.4624 12 17.5C12 20.5376 14.4624 23 17.5 23ZM20.3536 16.3536C20.5488 16.1583 20.5488 15.8417 20.3536 15.6464C20.1583 15.4512 19.8417 15.4512 19.6464 15.6464L16.5 18.7929L14.8536 17.1464C14.6583 16.9512 14.3417 16.9512 14.1464 17.1464C13.9512 17.3417 13.9512 17.6583 14.1464 17.8536L16.1464 19.8536C16.2402 19.9473 16.3674 20 16.5 20C16.6326 20 16.7598 19.9473 16.8536 19.8536L20.3536 16.3536Z"/></svg>

<svg xmlns="http://www.w3.org/2000/svg" width="24" height="24" fill="currentColor" viewBox="0 0 24 24">
  <path d="M2.75 2a.75.75 0 0 0-.75.75v2.5a.75.75 0 0 0 1.5 0V3.5h1.75a.75.75 0 0 0 0-1.5h-2.5ZM2 18.75v2.5a.75.75 0 0 0 .75.75h2.5a.75.75 0 0 0 0-1.5H3.5v-1.75a.75.75 0 0 0-1.5 0Zm20-13.5v-2.5a.75.75 0 0 0-.75-.75h-2.5a.75.75 0 0 0 0 1.5h1.75v1.75a.75.75 0 0 0 1.5 0Zm-11-.755a2 2 0 0 1 2 0l5 2.886a2 2 0 0 1 .23.156L12 11.134 5.77 7.537c.072-.057.149-.109.23-.156l5-2.886Zm7.98 4.341-6.23 3.597v.63A6.482 6.482 0 0 1 17.5 11c.516 0 1.018.06 1.5.174v-2.06c0-.094-.006-.187-.02-.278Zm-7.73 3.597v3.276c-.163.569-.25 1.17-.25 1.791s.087 1.222.25 1.791v.337a2.01 2.01 0 0 1-.25-.122l-5-2.887a2 2 0 0 1-1-1.732V9.113c0-.093.007-.186.02-.277l6.23 3.597Z"/>
  <path fill-rule="evenodd" d="M17.5 23a5.5 5.5 0 1 0 0-11 5.5 5.5 0 0 0 0 11Zm2.854-6.646a.5.5 0 0 0-.708-.708L16.5 18.793l-1.646-1.647a.5.5 0 0 0-.708.708l2 2a.5.5 0 0 0 .708 0l3.5-3.5Z" clip-rule="evenodd"/>
</svg>
